assets/zerotier/original.svg

<svg viewBox="0 0 24 24" xmlns="http://www.w3.org/2000/svg" fill="#FFB441"><path d="m4.01 0a3.999 3.999 0 0 0 -3.996 4v16c0 2.209 1.79 4 3.996 4h15.98a3.998 3.998 0 0 0 3.996-4v-16c0-2.209-1.79-4-3.996-4zm-.672 2.834h17.326a.568.568 0 1 1 0 1.137h-8.129c.021.059.033.123.033.19v1.804a6.06 6.06 0 0 1 5.489 6.035c0 3.157-2.41 5.75-5.489 6.037v2.56a.568.568 0 1 1 -1.136 0v-2.56a6.061 6.061 0 0 1 -5.489-6.037 6.06 6.06 0 0 1 5.489-6.035v-1.805c0-.066.012-.13.033-.19h-8.127a.568.568 0 1 1 0-1.136zm8.094 4.307a4.89 4.89 0 0 0 -4.319 4.859 4.89 4.89 0 0 0 4.319 4.86zm1.136 0v9.718a4.892 4.892 0 0 0 4.32-4.859 4.892 4.892 0 0 0 -4.32-4.86z"/></svg>

<svg xmlns="http://www.w3.org/2000/svg" fill="#ffb441" viewBox="0 0 24 24"><path d="M4.01 0A4 4 0 0 0 .014 4v16c0 2.209 1.79 4 3.996 4h15.98a4 4 0 0 0 3.996-4V4c0-2.209-1.79-4-3.996-4zm-.672 2.834h17.326a.568.568 0 1 1 0 1.137h-8.129a.6.6 0 0 1 .033.19v1.804A6.06 6.06 0 0 1 18.057 12c0 3.157-2.41 5.75-5.489 6.037v2.56a.568.568 0 1 1-1.136 0v-2.56A6.06 6.06 0 0 1 5.943 12a6.06 6.06 0 0 1 5.489-6.035V4.16q0-.1.033-.19H3.338a.568.568 0 1 1 0-1.136m8.094 4.307A4.89 4.89 0 0 0 7.113 12a4.89 4.89 0 0 0 4.319 4.86zm1.136 0v9.718A4.89 4.89 0 0 0 16.888 12a4.89 4.89 0 0 0-4.32-4.86z"/></svg>
